!!!!SEGMENT: pl-wn--sd-xvi-qu-273--035_gomolka-mikolaj--obronca-wieczny-ludzi-utrapionych.krn
!!!cenid: 15xx:240
!!!COM: Gomółka, Mikołaj
!!!COM-rismid: pe30013343
!!!CDT: ~1535->1591/04/30
!!!CNT: Polish
!!!GTL: Melodiae na psalterz polski
!!!OTL: XXXV. Obrońca wieczny ludzi utrapionych,
!!!PDT: 1580
!!!AGN: Sacred
!!!SMS-siglum: PL-Wn
!!!SMS-shelfmark: SD XVI.Qu.273
!!!SMS-shelfwork: 035 G
!!!NIFC-rismid:
!!!ONB-nifc: Melodiae na psalterz polski
**kern	**text	**kern	**text	**kern	**text	**kern	**text
*part4	*part4	*part3	*part3	*part2	*part2	*part1	*part1
*staff4	*staff4	*staff3	*staff3	*staff2	*staff2	*staff1	*staff1
*clefF4	*	*clefC4	*	*clefC3	*	*clefC1	*
*k[]-	*	*k[]	*	*k[]	*	*k[]	*
*d:-	*	*d:	*	*d:	*	*d:	*
*M4/2	*	*M4/2	*	*M4/2	*	*M4/2	*
*met(C|)	*	*met(C|)	*	*met(C|)	*	*met(C|)	*
=-	=-	=-	=-	=-	=-	=-	=-
1D	Ob-	1d	Ob-	1f	Ob-	1a	Ob-
2A	-roń-	2c	-roń-	2e	-roń-	2a	-roń-
2A	-cá	2c	-cá	2e	-cá	2a	-cá
=3-	=3-	=3-	=3-	=3-	=3-	=3-	=3-
4F	wiecӡ-	1f	wiecӡ-	1a	wiecӡ-	1cc	wiecӡ-
4G	.	.	.	.	.	.	.
4A	.	.	.	.	.	.	.
4B	.	.	.	.	.	.	.
2c	-ny	2e	-ny	2.g	-ny	2cc	-ny
2G	lu-	2d	lu-	.	.	2b	lu-
.	.	.	.	4f	lu-	.	.
=4-	=4-	=4-	=4-	=4-	=4-	=4-	=4-
2A	-dӡi	2.c	-dӡi	2e	-dӡi	2.a	-dӡi
2F	ut-	.	.	2d	ut-	.	.
.	.	8BL	ut-	.	.	8gL	ut-
.	.	8AJ	.	.	.	8fJ	.
2E	-ra-	4B	-ra-	2.e	-ra-	4g	-ra-
.	.	4c	.	.	.	2a	.
2E	-pio-	2B	-pio-	.	.	.	.
.	.	.	.	4d	-pio-	4g	-pio-
=5-	=5-	=5-	=5-	=5-	=5-	=5-	=5-
1AA	-nych	1A	-nych	1c#X	-nych	1a	-nych
1A	Do	1c	Do	1e	Do	1a	Do
=6-	=6-	=6-	=6-	=6-	=6-	=6-	=6-
2F	ćie-	2d	ćie-	2.f	ćie-	2a	ćie-
2F	-bie	1c	bie	.	.	2a	-bie
.	.	.	.	4e	.	.	.
1G	w_ʃwo-	.	.	4d	-bie	2.g	w_ʃwo-
.	.	.	.	4c	.	.	.
.	.	2B	w_ʃwo-	2d	w_ʃwo-	.	.
.	.	.	.	.	.	4f	.
!!LO:PB:g=original
=7-	=7-	=7-	=7-	=7-	=7-	=7-	=7-
2C	-ich	4c	-ich	2e	-ich	2e	-ich
.	.	4B	.	.	.	.	.
2D/	ťrӡyw-	2A/	ťrӡyw-	2d	ťrӡy(w-	2f	ťrӡyw-
2GG	-(dách)	4G	-dách	2B-X	-dách)	4e	-dách
.	.	4F	.	.	.	4d	.
2BB-X	niez-	4E	niez-	2G	niez-	2d	niez-
.	.	4D	.	.	.	.	.
=8-	=8-	=8-	=8-	=8-	=8-	=8-	=8-
2AA	-li-	2E	-li	1A	-li_czo	2d	-li-
2AA	-czo-	2E	-czo	.	.	2c	-czo-
2D/	-nych	2D	-nych	2A	-nych	2d	-(nych)
2D/	Ja	2A/	Ja	2d	Ja	2f	Ja
=9-	=9-	=9-	=9-	=9-	=9-	=9-	=9-
2GG	ʃye	2.G	ʃye	2B	ʃye	4e	ʃye
.	.	.	.	.	.	4d	.
2GG	u-	.	.	2B	u-	1d	u-
.	.	4F	u-	.	.	.	.
1AA	-ćie-	1E	ćie-	1A	-ćie-	.	.
.	.	.	.	.	.	2c	-ćie-
=10-	=10-	=10-	=10-	=10-	=10-	=10-	=10-
!!LO:N:vis=00
0D	-ťam.	0D/	-ťam.	0A	-ťam.	0d/	-ťam.
=-	=-	=-	=-	=-	=-	=-	=-
*-	*-	*-	*-	*-	*-	*-	*-
!!!RDF**kern: l = terminal long
!!!system-decoration: s1,s2,s3,s4
!!!rscále: 2
!!!ENC:Anna Matuszewska
!!!END:2020-02-07
!!!URL-scan: https://polona.pl/item/melodiae-na-psalterz-polski,Nzk3MTM4ODQ/92 Scan on Polona
!!!IIIF: https://polona.pl/iiif/item/Nzk3MTM4ODQ/manifest.json
